X:1
T:codm2
T:codm2
%%score { 1 | 2 } 3
L:1/8
M:4/4
K:C
V:1 treble-8 nm="Guitar" snm="Guit."
V:2 tab stafflines=6 strings=E2,A2,D3,G3,B3,E4 nostems 
V:3 treble nm="Piano" snm="Pno."
V:1
 z z z2 z4 | [E,B,E]/[E,B,E]/[E,B,E]/G/ G/G/^F/F/ FDDD | ([D^F]/[DF]/[DF]/)G/ G/G/A/A/ AFFF | %3
 [CE]/[CE]/[CE]/G/ G/G/^F/F/ FDDD | ([D^F]/[DF]/[DF]/)B/ B/B/c/c/ cBBB | %5
 [E,B,E]/[E,B,E]/[E,B,E]/G/ G/G/^F/F/ FDDD | ([D^F]/[DF]/[DF]/)G/ G/G/A/A/ AFFF | %7
 [CE]/[CE]/[CE]/G/ G/G/^F/F/ FDDD | ([D^F]/[DF]/[DF]/)B/ B/B/c/c/ cBBB | [E,B,E]2 ^F4 E,/B,/F | %10
 E,/E,/ z E, z A,B,^FF | G[E,A]BE, [E,A]G^FD | [CE]G/G/ G/[C^F]/F/F/ DD D[A,E]/E/ | %13
 E/B/B/B/ [A,c]/c/c/E,/ B,/^F/ z E,/E,/E, | A,B,^FF G[E,A]BE, | [E,A]G^FD [CE]G/G/ G/[CF]/F/F/ | %16
 D/D/D/ z/ z2 z4 | z2 z2 z2 z2 | z4 z4 | z4 z4 | z4 z4 | z4 z4 | z4 z4 | z4 z4 | z8 | z8 | %26
 z2 z2 z4 | z8 | z8 | z2 z2 z4 | z8 | z8 |] %32
V:2
 x x x2 x4 | %1
 [!6!E,,!5!B,,!4!E,]/ [!6!E,,!5!B,,!4!E,]/ [!6!E,,!5!B,,!4!E,]/ !3!G,/ !3!G,/ !3!G,/ !4!^F,/ !4!F,/ !4!F, !4!D, !4!D, !4!D, | %2
 ([!5!D,!4!^F,]/ [!5!D,!4!F,]/ [!5!D,!4!F,]/) !3!G,/ !3!G,/ !3!G,/ !3!A,/ !3!A,/ !3!A, !4!F, !4!F, !4!F, | %3
 [!5!C,!4!E,]/ [!5!C,!4!E,]/ [!5!C,!4!E,]/ !3!G,/ !3!G,/ !3!G,/ !4!^F,/ !4!F,/ !4!F, !4!D, !4!D, !4!D, | %4
 ([!5!D,!4!^F,]/ [!5!D,!4!F,]/ [!5!D,!4!F,]/) !2!B,/ !2!B,/ !2!B,/ !3!C/ !3!C/ !3!C !2!B, !2!B, !2!B, | %5
 [!6!E,,!5!B,,!4!E,]/ [!6!E,,!5!B,,!4!E,]/ [!6!E,,!5!B,,!4!E,]/ !3!G,/ !3!G,/ !3!G,/ !4!^F,/ !4!F,/ !4!F, !4!D, !4!D, !4!D, | %6
 ([!5!D,!4!^F,]/ [!5!D,!4!F,]/ [!5!D,!4!F,]/) !3!G,/ !3!G,/ !3!G,/ !3!A,/ !3!A,/ !3!A, !4!F, !4!F, !4!F, | %7
 [!5!C,!4!E,]/ [!5!C,!4!E,]/ [!5!C,!4!E,]/ !3!G,/ !3!G,/ !3!G,/ !4!^F,/ !4!F,/ !4!F, !4!D, !4!D, !4!D, | %8
 ([!5!D,!4!^F,]/ [!5!D,!4!F,]/ [!5!D,!4!F,]/) !2!B,/ !2!B,/ !2!B,/ !3!C/ !3!C/ !3!C !2!B, !2!B, !2!B, | %9
 [!6!E,,!5!B,,!4!E,]2 !4!^F,4 !6!E,,/ !5!B,,/ !4!F, | %10
 !6!E,,/ !6!E,,/ x !6!E,, x !5!A,, !5!B,, !4!^F, !4!F, | %11
 !4!G, [!6!E,,!3!A,] !3!B, !6!E,, [!6!E,,!3!A,] !3!G, !4!^F, !4!D, | %12
 [!5!C,!4!E,] !3!G,/ !3!G,/ !3!G,/ [!5!C,!4!^F,]/ !4!F,/ !4!F,/ !4!D, !4!D, !4!D, [!5!A,,!4!E,]/ !4!E,/ | %13
 !4!E,/ !2!B,/ !2!B,/ !2!B,/ [!5!A,,!2!C]/ !2!C/ !2!C/ !6!E,,/ !5!B,,/ !4!^F,/ x !6!E,,/ !6!E,,/ !6!E,, | %14
 !5!A,, !5!B,, !4!^F, !4!F, !4!G, [!6!E,,!3!A,] !3!B, !6!E,, | %15
 [!6!E,,!3!A,] !3!G, !4!^F, !4!D, [!5!C,!4!E,] !3!G,/ !3!G,/ !3!G,/ [!5!C,!4!F,]/ !4!F,/ !4!F,/ | %16
 !4!D,/ !4!D,/ !4!D,/ x/ x2 x4 | x2 x2 x2 x2 | x4 x4 | x4 x4 | x4 x4 | x4 x4 | x4 x4 | x4 x4 | x8 | %25
 x8 | x2 x2 x4 | x8 | x8 | x2 x2 x4 | x8 | x8 |] %32
V:3
 z8 | E/E/E/G/ G/G/^F/F/ FDDD | ([D,^F,]/[D,F,]/[D,F,]/)G,/ G,/G,/A,/A,/ A,F,F,F, | %3
 [C,E,]/[C,E,]/[C,E,]/G,/ G,/G,/^F,/F,/ F,D,D,D, | ([D,^F,]/[D,F,]/[D,F,]/)B,/ B,/B,/C/C/ CB,B,B, | %5
 [E,,B,,E,]/[E,,B,,E,]/[E,,B,,E,]/G,/ G,/G,/^F,/F,/ F,D,D,D, | %6
 ([D,^F,]/[D,F,]/[D,F,]/)G,/ G,/G,/A,/A,/ A,F,F,F, | %7
 [C,E,]/[C,E,]/[C,E,]/G,/ G,/G,/^F,/F,/ F,D,D,D, | ([D,^F,]/[D,F,]/[D,F,]/)B,/ B,/B,/C/C/ CB,B,B, | %9
 [E,,B,,E,]2 ^F,4 E,,/B,,/F, | E,,/E,,/ z E,, z A,,B,,^F,F, | G,[E,,A,]B,E,, [E,,A,]G,^F,D, | %12
 [C,E,]G,/G,/ G,/[C,^F,]/F,/F,/ D,D, D,[A,,E,]/E,/ | %13
 E,/B,/B,/B,/ [A,,C]/C/C/E,,/ B,,/^F,/ z E,,/E,,/E,, | A,,B,,^F,F, G,[E,,A,]B,E,, | %15
 [E,,A,]G,^F,D, [B,,=F,]G,/G,/ G,/[C,^F,]/F,/F,/ | D,/D,/D,/ z/ z2 z4 | z8 | z8 | z8 | z8 | z8 | %22
 z8 | z8 | z8 | z8 | z8 | z8 | z8 | z8 | z8 | z8 |] %32

